X:0751
M:C
L:1/8
Q:1/2=104
K:G
d<gTg2 dg`bg |agbg ea Ta2|d<gTg2  dg`bg |   ag`bg ea Ta2 |
d<g g2 dg`bg |agbg ea Ta2|g<b`e<g d<gB<g|{e}d>cBA G<G G2|]

